img/icon/safety.svg

<svg xmlns="http://www.w3.org/2000/svg" preserveAspectRatio="xMidYMid" width="23.5" height="31.688" viewBox="0 0 23.5 31.688"><defs><style>.cls-1{fill:#fff;fill-rule:evenodd}</style></defs><path d="M11.935 31.654a.447.447 0 0 1-.185.037.448.448 0 0 1-.188-.037C11.093 31.447.009 26.517.009 20.064V4.3c0-.252.204-.461.462-.461C9.704 3.839 11.305.317 11.317.28a.474.474 0 0 1 .436-.283c.19.004.358.119.426.291.014.033 1.582 3.551 10.85 3.551.255 0 .46.209.462.461v15.764c0 6.453-11.082 11.383-11.556 11.59zm9.005-12.507V6.808a.362.362 0 0 0-.361-.363c-7.254 0-8.482-2.752-8.494-2.777a.36.36 0 0 0-.332-.229h-.006a.366.366 0 0 0-.334.223c-.012.027-1.265 2.783-8.494 2.783a.363.363 0 0 0-.362.363v12.339c0 5.049 8.681 8.912 9.045 9.072a.333.333 0 0 0 .147.031.32.32 0 0 0 .144-.031c.37-.16 9.048-4.023 9.048-9.072h-.001zm-9.657 3.077a.246.246 0 0 1-.178.152c-.016.004-.035.004-.048.004a.224.224 0 0 1-.173-.074l-6.121-6.223c-.049-.051 1.796-1.689 1.885-1.625l3.361 2.633c1.309-1.539 4.533-5.002 9.005-7.744.063-.038.727.974.728.975a.245.245 0 0 1-.06.275c-4.157 3.827-7.414 9.106-8.399 11.627z" class="cls-1"/></svg>

<svg xmlns="http://www.w3.org/2000/svg" xmlns:xlink="http://www.w3.org/1999/xlink" preserveAspectRatio="xMidYMid" width="23.5" height="31.688" viewBox="0 0 23.5 31.688">
  <defs>
    <style>
      .cls-1 {
        fill: #fff;
        fill-rule: evenodd;
      }
    </style>
  </defs>
  <path d="M11.935,31.654 C11.877,31.681 11.810,31.691 11.750,31.691 C11.682,31.691 11.624,31.681 11.562,31.654 C11.093,31.447 0.009,26.517 0.009,20.064 L0.009,4.300 C0.009,4.048 0.213,3.839 0.471,3.839 C9.704,3.839 11.305,0.317 11.317,0.280 C11.391,0.112 11.560,-0.003 11.745,-0.003 C11.749,-0.003 11.753,-0.003 11.753,-0.003 C11.943,0.001 12.111,0.116 12.179,0.288 C12.193,0.321 13.761,3.839 23.029,3.839 C23.284,3.839 23.489,4.048 23.491,4.300 L23.491,20.064 C23.491,26.517 12.409,31.447 11.935,31.654 ZM20.940,19.147 L20.940,6.808 C20.940,6.609 20.780,6.445 20.579,6.445 C13.325,6.445 12.097,3.693 12.085,3.668 C12.032,3.531 11.901,3.441 11.753,3.439 C11.753,3.439 11.749,3.439 11.747,3.439 C11.601,3.439 11.470,3.529 11.413,3.662 C11.401,3.689 10.148,6.445 2.919,6.445 C2.718,6.445 2.557,6.609 2.557,6.808 L2.557,19.147 C2.557,24.196 11.238,28.059 11.602,28.219 C11.651,28.242 11.698,28.250 11.749,28.250 C11.796,28.250 11.848,28.242 11.893,28.219 C12.263,28.059 20.941,24.196 20.941,19.147 L20.940,19.147 ZM11.283,22.224 C11.253,22.304 11.184,22.358 11.105,22.376 C11.089,22.380 11.070,22.380 11.057,22.380 C10.991,22.380 10.929,22.357 10.884,22.306 L4.763,16.083 C4.714,16.032 6.559,14.394 6.648,14.458 L10.009,17.091 C11.318,15.552 14.542,12.089 19.014,9.347 C19.077,9.309 19.741,10.321 19.742,10.322 C19.783,10.417 19.757,10.527 19.682,10.597 C15.525,14.424 12.268,19.703 11.283,22.224 Z" class="cls-1"/>
</svg>
